!!!COM: Music21
!!!OTL: A Praza do Ferro
!!!OMV: pezas_jotas_a-praza-do-ferro_a-praza-do-ferro-partitura.musicxml
**kern
*I"Bagpipes
*I'Bag
*clefG^2
*k[]
*M3/4
=1
!LO:TX:a:t=Prestissimo
*MM220
!LO:TX:a:t=[quarter]=220
4r
8eeL
8ffJ
8ggL
8aaJ
=
4gg
4ee
[4gg
=
8ggL]
8aaJ
8ggL
8ffJ
8eeL
8ddJ
=
8ffL
8eeJ
8ddL
8eeJ
[4cc
=
4cc]
8eeL
8ggJ
8ffL
8eeJ
=
4ff
8ffL
8eeJ
8ddL
8ccJ
=
8bL
8ccJ
8ddL
8eeJ
8ffL
8ggJ
=
4ee
8ccL
8eeJ
8ddL
8bJ
=
[2.cc
!!linebreak:original
=
4cc]
8eeL
8ffJ
8ggL
8aaJ
=||
4gg
4ee
[4gg
=
8ggL]
8aaJ
8ggL
8ffJ
8eeL
8ddJ
=
8ffL
8eeJ
8ddL
8eeJ
[4cc
=
4cc]
8eeL
8ffJ
8ggL
8aaJ
=
4.bb
8ccc
8bbL
8ggJ
=
8bbL
8aaJ
8ffL
8ggJ
8aaL
8bbJ
=
4aa
[2gg
=
4gg]
8eeL
8ffJ
8ggL
8aaJ
!!linebreak:original
=||
4gg
4ee
[4gg
=
8ggL]
8aaJ
8ggL
8ffJ
8eeL
8ddJ
!!linebreak:original
=
8ffL
8eeJ
8ddL
8eeJ
[4cc
=
4cc]
8eeL
8ggJ
8ffL
8eeJ
=
4ff
8ffL
8eeJ
8ddL
8ccJ
=
8bL
8ccJ
8ddL
8eeJ
8ffL
8ggJ
=
4ee
8ccL
8eeJ
8ddL
8bJ
=||
2cc
4cc
=||
4ee
4cc
4ee
=
4gg
4ff
4ee
=
4ee
8ggL
8ffJ
8eeL
8ffJ
!!linebreak:original
=
4ee
4cc
4ee
!!linebreak:original
=
4ee
4cc
4ee
=
2dd
4dd
=
4ff
4dd
[4ff
=
4ff]
8ggL
8ffJ
8eeL
8ddJ
=
4cc
4cc
4dd
=
8ffL
8eeJ
8ddL
8ccJ
8bL
8ddJ
=
2cc
[4cc
=
2cc]
4cc
=||
4ee
4cc
4ee
=
4gg
4ff
4ee
=
4ee
8ggL
8ffJ
8eeL
8ffJ
!!linebreak:original
=
4ee
4cc
4ee
!!linebreak:original
=
4ee
4cc
4ee
=
2dd
4dd
=
4ff
4dd
[4ff
=
4ff]
8ggL
8ffJ
8eeL
8ddJ
=
4cc
4cc
4dd
=
8ffL
8eeJ
8ddL
8ccJ
8bL
8ddJ
=
2cc
[4cc
=
4cc]
8eeL
8ffJ
8eeL
8ddJ
=||
8ffL
8eeJ
8ddL
8eeJ
[4cc
!!linebreak:original
=
4cc]
8eeL
8ffJ
8eeL
8ddJ
=
8ccL
8ddJ
8eeL
8ffJ
4dd
=
4b
8ffL
8ggJ
8ffL
8eeJ
=
8ggL
8ffJ
8eeL
8ffJ
4dd
=
8bL
8ccJ
8ddL
8eeJ
8ffL
8eeJ
=
8ggL
8ffJ
8eeL
8ddJ
4cc
=
4cc
8eeL
8ffJ
8eeL
8ddJ
=||
8ffL
8eeJ
8ddL
8eeJ
[4cc
!!linebreak:original
=
4cc]
8eeL
8ffJ
8eeL
8ddJ
=
8ccL
8ddJ
8eeL
8ffJ
4dd
=
4b
8ffL
8ggJ
8ffL
8eeJ
=
8ggL
8ffJ
8eeL
8ffJ
4dd
=
8bL
8ccJ
8ddL
8eeJ
8ffL
8eeJ
=
8ggL
8ffJ
8eeL
8ddJ
4cc
=
2cc
4cc
=||
4dd
2b
=
4dd
2cc
!!linebreak:original
=
4ee
4dd
4ff
=
2ee
8ffL
8ggJ
=
4aa
4ff
4dd
=
4dd
4cc
[4ee
=
4ee]
4ff
4dd
=
4dd
4cc
4cc
=||
4dd
2b
=
4dd
2cc
!!linebreak:original
=
4ee
4dd
4ff
=
2ee
8ffL
8ggJ
=
4aa
4ff
4dd
=
4dd
4cc
[4ee
=
4ee]
8ggL
8ffJ
8eeL
8ddJ
=
2cc
[4cc
=
4cc]
4ee
4gg
=||
4ccc
4bb
4ccc
=
4gg
8eeL
8ggJ
[4ccc
!!pagebreak:original
=
4ccc]
4.bb
8gg
=
8aaL
8bbJ
8aaL
8ggJ
[4aa
=
4aa]
8ffL
8ggJ
8aaL
8bbJ
=
4ccc
4bb
4ccc
=
4gg
4ee
4gg
=
4ff
2dd
=
2ee
[4ee
=
2ee]
4gg
=||
4ccc
4bb
4ccc
=
4gg
8eeL
8ggJ
[4ccc
!!linebreak:original
=
4ccc]
4.bb
8gg
=
8aaL
8bbJ
8aaL
8ggJ
[4aa
=
4aa]
8ffL
8ggJ
8aaL
8bbJ
=
4ccc
4bb
4ccc
=
4gg
4ee
4gg
=
4ff
2dd
=
2ee
[4ee
=
2ee]
4ee
=||
4gg
4ff
4ee
=
4ff
2ee
!!linebreak:original
=
4dd
8ffL
8eeJ
[4dd
=
4dd]
8ddL
8eeJ
8ffL
8ggJ
=
4aa
4gg
4ff
=
4gg
2ee
=
4cc
8eeL
8ddJ
[4cc
=
2cc]
4ee
=||
4gg
4ff
4ee
=
4ff
2ee
!!linebreak:original
=
4dd
8ffL
8eeJ
[4dd
=
4dd]
8ddL
8eeJ
8ffL
8ggJ
=
4aa
4gg
4ff
=
4gg
2ee
=
4cc
8eeL
8ddJ
[4cc
=
4cc]
4ee
4gg
=||
4ccc
4bb
4ccc
=
4gg
8eeL
8ggJ
[4ccc
=
4ccc]
4.bb
8gg
!!linebreak:original
=
8aaL
8bbJ
8aaL
8ggJ
[4aa
=
4aa]
8ffL
8ggJ
8aaL
8bbJ
=
4ccc
4bb
4ccc
=
4gg
4ee
4gg
=
4ff
2dd
=
2ee
[4ee
=||
4ee]
8eeL
8ffJ
8eeL
8ddJ
=
4cc
4ee
4dd
=
4cc
4.ff
8ee
=
8ffL
8eeJ
8ddL
8ccJ
[4b
!!linebreak:original
=
4b]
8ggL
8aaJ
8ggL
8ffJ
=
4ee
8eeL
8ddJ
4cc
=
8ffL
8eeJ
8ddL
8ccJ
8bL
8ddJ
=
[2.cc
=
4cc]
8eeL
8ffJ
8ggL
8aaJ
=||
[2.cc
=
4cc]
2r
==
*-
